X:39
T:Dj mal marie, dj
R:
N:
O:France
Z:<anamnese@laposte.net> -- http://anamnese.fr.st
M:3/4
L:1/8
Q:1/4=140
K:A
C C F | [M:2/4] F3E | C3C | F>G A F | [M:3/4] E2 F C C F | 
        [M:2/4] F3E | C3C | F>G A F | [M:3/4] E2 F F F G |
        [M:2/4] A2A2 | G3G | F>G A F | E E C2 | C>F F F | 
E E C2 | C>F F F | E2F2 | C>F F F | E E C2 | C>F F F | [M:3/4] E2 Fz/z2 ||
W:Mon pre m'a marie  un tailleur de pierre, (2x)
W:Le lendemain d'mes noces m'envoie  la carrire - l !
W:
W:Dj mal marie dj, dj mal marie dj ! (2x)
